X:1
T:Nuremberg, 77.77
T:Nuremberg, 77.77
T:Johann Rudolf Ahle, 1664, alt.
T:Public Domain Courtesy of the Cyber Hymnal™
C:Johann Rudolf Ahle, 1664, alt.
Z:Public Domain
Z:Courtesy of the Cyber Hymnal™
%%score ( 1 2 ) ( 3 4 )
L:1/8
Q:1/4=110
M:4/4
K:A
V:1 treble 
V:2 treble 
V:3 bass 
V:4 bass 
V:1
 [Ec]2 [EA]2 [EB]2 [Ee]2 | [Ec]2 A2 [GB]4 | [FA]2 [EA]2 [FA]2 [CA]2 | [FB]2 ([Ec][DB]) [CA]4 | %4
 [CE]2 [B,E]2 E2 [CE]2 | [DF]2 [FB]2 [EG]4 | [CA]2 [EA]2 [FA]2 [CA]2 | [FB]2 ([Ec][DB]) [CA]4 |] %8
V:2
 x8 | x2 A2 x4 | x8 | x8 | x4 (ED) x2 | x8 | x8 | x8 |] %8
V:3
 [A,,A,]2 [C,A,]2 [E,G,]2 [G,B,]2 | [A,E]2 [C,E]2 [E,E]4 | [F,C]2 [C,A,]2 [D,A,]2 [A,,A,]2 | %3
 [D,A,]2 [E,G,]2 [A,,A,]4 | [A,,A,]2 G,2 A,2 [A,,A,]2 | [D,A,]2 [B,,D]2 [E,B,]4 | %6
 [F,A,]2 [C,A,]2 [D,A,]2 [A,,A,]2 | [D,A,]2 [E,G,]2 [A,,A,]4 |] %8
V:4
 x8 | x8 | x8 | x8 | x2 (E,D,) (C,B,,) x2 | x8 | x8 | x8 |] %8

